packages/icons/svgs/duotone/Source=cloud-rain.svg

<svg width="24" height="24" viewBox="0 0 24 24" fill="none" xmlns="http://www.w3.org/2000/svg">
<g clip-path="url(#clip0_862_970)">
<path fill-rule="evenodd" clip-rule="evenodd" d="M3.0665 7.35256C3.62627 3.24736 7.20427 0 11.5 0C15.7459 0 19.1859 3.0787 19.8907 7.07982C22.2211 7.50238 24 9.55153 24 12C24 14.3533 22.3911 16.3647 20.229 16.8734C19.6914 16.9999 19.1531 16.6666 19.0266 16.129C18.9001 15.5914 19.2334 15.0531 19.771 14.9266C21.0089 14.6353 22 13.4467 22 12C22 10.3523 20.6477 9 19 9C18.4775 9 18.043 8.59769 18.0029 8.0767C17.7417 4.68031 14.9602 2 11.5 2C8.03592 2 5.1716 4.77935 4.99869 8.15121C4.9759 8.59562 4.6622 8.9715 4.22904 9.07342C2.99114 9.36469 2 10.5533 2 12C2 13.4073 2.95869 14.5514 4.28217 14.9406C4.81201 15.0965 5.1152 15.6523 4.95937 16.1822C4.80353 16.712 4.24768 17.0152 3.71783 16.8594C1.64131 16.2486 0 14.3927 0 12C0 9.91039 1.26852 8.09035 3.0665 7.35256Z" fill="black"/>
<g opacity="0.55">
<path fill-rule="evenodd" clip-rule="evenodd" d="M12 16C12.5523 16 13 16.4477 13 17V23C13 23.5523 12.5523 24 12 24C11.4477 24 11 23.5523 11 23V17C11 16.4477 11.4477 16 12 16Z" fill="black"/>
<path fill-rule="evenodd" clip-rule="evenodd" d="M8 13C8.55228 13 9 13.4477 9 14V20C9 20.5523 8.55228 21 8 21C7.44772 21 7 20.5523 7 20V14C7 13.4477 7.44772 13 8 13Z" fill="black"/>
<path fill-rule="evenodd" clip-rule="evenodd" d="M16 13C16.5523 13 17 13.4477 17 14V20C17 20.5523 16.5523 21 16 21C15.4477 21 15 20.5523 15 20V14C15 13.4477 15.4477 13 16 13Z" fill="black"/>
</g>
</g>
<defs>
<clipPath id="clip0_862_970">
<rect width="24" height="24" fill="white"/>
</clipPath>
</defs>
</svg>

<svg xmlns="http://www.w3.org/2000/svg" width="24" height="24" viewBox="0 0 24 24"><g fill-rule="evenodd" clip-path="url(#a)" clip-rule="evenodd"><path d="M3.067 7.353C3.627 3.247 7.204 0 11.5 0c4.246 0 7.686 3.079 8.39 7.08A5.014 5.014 0 0 1 24 12c0 2.353-1.609 4.365-3.771 4.873a1 1 0 1 1-.458-1.946C21.009 14.635 22 13.447 22 12c0-1.648-1.352-3-3-3a1 1 0 0 1-.997-.923C17.742 4.68 14.96 2 11.5 2 8.036 2 5.172 4.78 4.999 8.151a1 1 0 0 1-.77.922C2.991 9.365 2 10.553 2 12c0 1.407.959 2.551 2.282 2.94a1 1 0 0 1-.564 1.92C1.64 16.248 0 14.392 0 12c0-2.09 1.269-3.91 3.067-4.647Z"/><path d="M12 16a1 1 0 0 1 1 1v6a1 1 0 1 1-2 0v-6a1 1 0 0 1 1-1Zm-4-3a1 1 0 0 1 1 1v6a1 1 0 1 1-2 0v-6a1 1 0 0 1 1-1Zm8 0a1 1 0 0 1 1 1v6a1 1 0 1 1-2 0v-6a1 1 0 0 1 1-1Z" opacity=".55"/></g><defs><clipPath id="a"><path fill="#fff" d="M0 0h24v24H0z"/></clipPath></defs></svg>
